Dominus_Dark_Funeral/22/apps/gnome-do.svg

<svg xmlns="http://www.w3.org/2000/svg" width="24" height="24" version="1"><path d="M10.33 1.7c-.2 0-.34.2-.32.58l.08 1.42c.03.6-.44.99-1.02.86L5.94 3.9c-.6-.12-.8.19-.49.7l.78 1.2c.32.5.12 1.06-.46 1.25l-3.04 1c-.57.18-.6.55-.07.83l1.26.66c.53.27.64.86.24 1.3l-2.14 2.4c-.4.44-.24.78.36.75l1.42-.06c.6-.03.99.43.86 1l-.65 3.15c-.12.59.18.8.69.48l1.2-.77c.5-.33 1.07-.13 1.25.45l1 3.04c.18.57.56.6.84.07l.65-1.26c.27-.53.86-.64 1.3-.24l2.4 2.14c.45.4.79.24.76-.36l-.06-1.42c-.03-.6.43-.99 1-.86l3.15.65c.58.13.8-.18.48-.69l-.77-1.19c-.33-.5-.13-1.07.45-1.26l3.04-1c.57-.18.6-.56.07-.83l-1.27-.66c-.53-.27-.64-.86-.24-1.3l2.14-2.4c.4-.44.24-.78-.36-.75l-1.42.06c-.6.03-.99-.43-.86-1l.66-3.15c.12-.59-.19-.8-.7-.48l-1.2.77c-.5.33-1.07.13-1.25-.45l-1-3.04c-.18-.57-.56-.6-.83-.07l-.65 1.26c-.28.53-.87.64-1.32.24l-2.38-2.14c-.17-.15-.33-.22-.45-.22zm1.62 6.73a3.57 3.57 0 0 1 0 7.14 3.57 3.57 0 1 1 0-7.14z" fill="#e6e6e6"/></svg>

<?xml version="1.0" encoding="UTF-8" standalone="no"?>
<svg
   xmlns:dc="http://purl.org/dc/elements/1.1/"
   xmlns:cc="http://creativecommons.org/ns#"
   xmlns:rdf="http://www.w3.org/1999/02/22-rdf-syntax-ns#"
   xmlns:svg="http://www.w3.org/2000/svg"
   xmlns="http://www.w3.org/2000/svg"
   xmlns:sodipodi="http://sodipodi.sourceforge.net/DTD/sodipodi-0.dtd"
   xmlns:inkscape="http://www.inkscape.org/namespaces/inkscape"
   width="24"
   height="24"
   version="1"
   id="svg4"
   sodipodi:docname="gnome-do.svg"
   inkscape:version="0.92.4 (5da689c313, 2019-01-14)">
  <metadata
     id="metadata10">
    <rdf:RDF>
      <cc:Work
         rdf:about="">
        <dc:format>image/svg+xml</dc:format>
        <dc:type
           rdf:resource="http://purl.org/dc/dcmitype/StillImage" />
        <dc:title></dc:title>
      </cc:Work>
    </rdf:RDF>
  </metadata>
  <defs
     id="defs8" />
  <sodipodi:namedview
     pagecolor="#ffffff"
     bordercolor="#666666"
     borderopacity="1"
     objecttolerance="10"
     gridtolerance="10"
     guidetolerance="10"
     inkscape:pageopacity="0"
     inkscape:pageshadow="2"
     inkscape:window-width="1138"
     inkscape:window-height="480"
     id="namedview6"
     showgrid="false"
     inkscape:zoom="9.8333333"
     inkscape:cx="1.0677966"
     inkscape:cy="12"
     inkscape:window-x="0"
     inkscape:window-y="25"
     inkscape:window-maximized="0"
     inkscape:current-layer="svg4" />
  <path
     d="m 10.33,1.7 c -0.2,0 -0.34,0.2 -0.32,0.58 L 10.09,3.7 C 10.12,4.3 9.65,4.69 9.07,4.56 L 5.94,3.9 C 5.34,3.78 5.14,4.09 5.45,4.6 L 6.23,5.8 C 6.55,6.3 6.35,6.86 5.77,7.05 l -3.04,1 C 2.16,8.23 2.13,8.6 2.66,8.88 l 1.26,0.66 c 0.53,0.27 0.64,0.86 0.24,1.3 l -2.14,2.4 c -0.4,0.44 -0.24,0.78 0.36,0.75 L 3.8,13.93 c 0.6,-0.03 0.99,0.43 0.86,1 l -0.65,3.15 c -0.12,0.59 0.18,0.8 0.69,0.48 l 1.2,-0.77 c 0.5,-0.33 1.07,-0.13 1.25,0.45 l 1,3.04 c 0.18,0.57 0.56,0.6 0.84,0.07 l 0.65,-1.26 c 0.27,-0.53 0.86,-0.64 1.3,-0.24 l 2.4,2.14 c 0.45,0.4 0.79,0.24 0.76,-0.36 l -0.06,-1.42 c -0.03,-0.6 0.43,-0.99 1,-0.86 L 18.19,20 c 0.58,0.13 0.8,-0.18 0.48,-0.69 L 17.9,18.12 c -0.33,-0.5 -0.13,-1.07 0.45,-1.26 l 3.04,-1 c 0.57,-0.18 0.6,-0.56 0.07,-0.83 l -1.27,-0.66 c -0.53,-0.27 -0.64,-0.86 -0.24,-1.3 l 2.14,-2.4 c 0.4,-0.44 0.24,-0.78 -0.36,-0.75 l -1.42,0.06 c -0.6,0.03 -0.99,-0.43 -0.86,-1 l 0.66,-3.15 c 0.12,-0.59 -0.19,-0.8 -0.7,-0.48 l -1.2,0.77 c -0.5,0.33 -1.07,0.13 -1.25,-0.45 l -1,-3.04 C 15.78,2.06 15.4,2.03 15.13,2.56 L 14.48,3.82 C 14.2,4.35 13.61,4.46 13.16,4.06 L 10.78,1.92 C 10.61,1.77 10.45,1.7 10.33,1.7 Z m 1.62,6.73 a 3.57,3.57 0 0 1 0,7.14 3.57,3.57 0 1 1 0,-7.14 z"
     id="path2"
     inkscape:connector-curvature="0"
     style="fill:#e6e6e6" />
</svg>
